!!!OTL: ES REGNET AUF DER BRUECKE
!!!ARE: Europa, Mitteleuropa, Deutschland, Niederrhein
!!!SCT: E1877A
!!!YEM: Copyright 1995, estate of Helmut Schaffrath.
**kern
*ICvox
*Ivox
*M2/4
*k[b-]
*F:
{8c
=1
8f
8g
8a
8b-
=2
4cc
8dd}
{8b-
=3
4a
4g
=4
4f
8r}
{8c
=5
8f
8g
8a
8b-
=6
4cc
8dd}
{8b-
=7
4a
4g
=8
4f
4r}
=9
{8.cc
16b-
8a
8cc
=10
8b-
8a
4g}
=11
{8.cc
16b-
8a
8cc
=12
4b-
4a
=13
4g
4r}
=14
{8f
8g
8a
8b-
=15
4cc
8dd}
{8b-
=16
4a
4g
=17
4f
8r}
==
!!!AGN: Kinder - Lied, Tanz, Ringelreihen
!!!ONB: ESAC (Essen Associative Code) Database: ERK3
!!!AMT: simple duple
!!!AIN: vox
!!!EED: Helmut Schaffrath
!!!EEV: 1.0
*-
